images/Logo.svg

<svg width="55" height="55" viewBox="0 0 55 55" fill="none" xmlns="http://www.w3.org/2000/svg">
<path d="M38.313 17.5674L34.8022 24.5886C34.4844 25.2238 33.8354 25.625 33.125 25.625H21.875C21.165 25.625 20.5156 25.2238 20.1982 24.5886L16.6875 17.5674L12.79 30.5586L27.5 41.9996L42.21 30.5586L38.313 17.5674Z" fill="#CDFFB6"/>
<path fill-rule="evenodd" clip-rule="evenodd" d="M27.5 55C42.688 55 55 42.6879 55 27.5C55 12.3121 42.688 0 27.5 0C12.312 0 0 12.3121 0 27.5C0 42.6879 12.312 55 27.5 55ZM31.9663 21.875L37.0732 11.6615C37.8325 10.1428 40.0581 10.3348 40.5459 11.9612L46.1709 30.7112C46.3936 31.4528 46.1372 32.2548 45.5264 32.73L28.6514 45.8551C27.9741 46.3817 27.0259 46.3817 26.3491 45.8551L9.47412 32.73C8.86279 32.2548 8.60645 31.4528 8.8291 30.7112L14.4541 11.9612C14.9419 10.3348 17.168 10.1428 17.9272 11.6615L23.0337 21.875H31.9663Z" fill="#CDFFB6"/>
</svg>

<svg id="Livello_1" data-name="Livello 1" xmlns="http://www.w3.org/2000/svg" viewBox="0 0 55 55"><defs><style>.cls-1,.cls-2{fill:#acd480;}.cls-2{fill-rule:evenodd;}</style></defs><path class="cls-1" d="M38.31,17.57l-3.51,7a1.88,1.88,0,0,1-1.68,1H21.88a1.9,1.9,0,0,1-1.68-1l-3.51-7-3.9,13L27.5,42,42.21,30.56Z" transform="translate(0 0)"/><path class="cls-2" d="M27.5,55A27.5,27.5,0,1,0,0,27.5,27.5,27.5,0,0,0,27.5,55ZM32,21.88l5.1-10.22a1.88,1.88,0,0,1,3.48.3l5.62,18.75a1.88,1.88,0,0,1-.64,2L28.65,45.86a1.89,1.89,0,0,1-2.3,0L9.47,32.73a1.88,1.88,0,0,1-.64-2L14.45,12a1.88,1.88,0,0,1,3.48-.3L23,21.88Z" transform="translate(0 0)"/></svg>
